svgs/duotone/trash-can-undo.svg

<svg xmlns="http://www.w3.org/2000/svg" viewBox="0 0 448 512"><!--! Font Awesome Pro 6.0.0-alpha3 by @fontawesome - https://fontawesome.com License - https://fontawesome.com/license (Commercial License) --><defs><style>.fa-secondary{opacity:.4}</style></defs><path class="fa-primary" d="M240 264H177.9l31.03-31.03c9.375-9.375 9.375-24.56 0-33.94s-24.56-9.375-33.94 0l-72 72c-9.375 9.375-9.375 24.56 0 33.94l72 72C179.7 381.7 185.9 384 192 384s12.28-2.344 16.97-7.031c9.375-9.375 9.375-24.56 0-33.94L177.9 312H240c22.06 0 40 17.94 40 40v40c0 13.25 10.75 24 24 24s24-10.75 24-24V352C328 303.5 288.5 264 240 264zM432 32h-120l-9.375-18.75C298.5 5.125 290.3 0 281.1 0H166.8c-9 0-17.38 5.125-21.38 13.25L136 32H16C7.125 32 0 39.13 0 48v32C0 88.88 7.125 96 16 96h416C440.9 96 448 88.88 448 80v-32C448 39.13 440.9 32 432 32z"/><path class="fa-secondary" d="M32 96v368C32 490.5 53.5 512 80 512h288c26.5 0 48-21.5 48-48V96H32zM328 392c0 13.25-10.75 24-24 24s-24-10.75-24-24V352c0-22.06-17.94-40-40-40H177.9l31.03 31.03c9.375 9.375 9.375 24.56 0 33.94C204.3 381.7 198.1 384 192 384s-12.28-2.344-16.97-7.031l-72-72c-9.375-9.375-9.375-24.56 0-33.94l72-72c9.375-9.375 24.56-9.375 33.94 0s9.375 24.56 0 33.94L177.9 264H240c48.53 0 88 39.47 88 88V392z"/></svg>

<svg xmlns="http://www.w3.org/2000/svg" viewBox="0 0 448 512"><!-- Font Awesome Pro 6.0.0-alpha2 by @fontawesome - https://fontawesome.com License - https://fontawesome.com/license (Commercial License) --><defs><style>.fa-secondary{opacity:.4}</style></defs><path d="M32 96V464C32 490.5 53.5 512 80 512H368C394.5 512 416 490.5 416 464V96H32ZM328 392C328 405.25 317.25 416 304 416S280 405.25 280 392V352C280 329.938 262.062 312 240 312H177.938L208.969 343.031C218.344 352.406 218.344 367.594 208.969 376.969C204.281 381.656 198.141 384 192 384S179.719 381.656 175.031 376.969L103.031 304.969C93.656 295.594 93.656 280.406 103.031 271.031L175.031 199.031C184.406 189.656 199.594 189.656 208.969 199.031S218.344 223.594 208.969 232.969L177.938 264H240C288.531 264 328 303.469 328 352V392Z" class="fa-secondary"/><path d="M240 264H177.938L208.969 232.969C218.344 223.594 218.344 208.406 208.969 199.031S184.406 189.656 175.031 199.031L103.031 271.031C93.656 280.406 93.656 295.594 103.031 304.969L175.031 376.969C179.719 381.656 185.859 384 192 384S204.281 381.656 208.969 376.969C218.344 367.594 218.344 352.406 208.969 343.031L177.938 312H240C262.062 312 280 329.938 280 352V392C280 405.25 290.75 416 304 416S328 405.25 328 392V352C328 303.469 288.531 264 240 264ZM432 32H312L302.625 13.25C298.5 5.125 290.25 0 281.125 0H166.75C157.75 0 149.375 5.125 145.375 13.25L136 32H16C7.125 32 0 39.125 0 48V80C0 88.875 7.125 96 16 96H432C440.875 96 448 88.875 448 80V48C448 39.125 440.875 32 432 32Z" class="fa-primary"/></svg>
